X:1
T:Abide with Me
M:6/8
L:1/8
Q:80
C:Henry F. Lyte
S:Slow Air
K:HP
|: {g}c4{GdG}c2B2 | \
{G}A4{g}e4 | \
{g}f2e2{gef}e2d2 |
{g}c4-c4 | \
{g}c4{Gdc}d2e2 | \
{g}f4{gef}e4 |
{Gdc}d2B2{GdG}c2d2 | \
{g}e4-e4 | \
{g}c4{GdG}c2B2 |
{G}A4{g}e4 | \
{g}e2d2{gde}d2c2 | \
{gBd}B4-B4 |
{g}B4{GdG}c2d2 | \
{gcd}c2{e}B2{G}A2{Gdc}d2 | \
{gcd}c4{e}B4 |
{G}A4-A4 | :|
